X:12
T:Paudy Scully's
T:Dan Patsy's
T:Turnip Jig, The
R:slide
Z:id:hn-slide-12
M:6/8
K:Bm
d2B BAB|g2e f2e|d2B BAB|e3 efe|d2B BAB|g2e f2e|d2B BcB|1 A3 A2B:|2 A3 A2e||
|:f2a f2e|efa f2e|d2B BAB|e3 ede|f2a f2e|efa f2e|d2B BcB|1 A3 A2e:|2 A3 A2B||
<end>
<start>
